symbols/web/article/materialsymbolssharp/article_wght100gradN25_20px.svg

<svg xmlns="http://www.w3.org/2000/svg" height="20" width="20"><path d="M6.438 13.562h4.708v-.624H6.438Zm0-3.27h7.145v-.604H6.438Zm0-3.25h7.145v-.625H6.438Zm-2.75 9.27V3.667h12.645v12.645Zm.604-.604h11.416V4.292H4.292Zm0 0V4.292v11.416Z"/></svg>

<svg xmlns="http://www.w3.org/2000/svg" height="20" width="20"><path d="M6.438 13.562H11.146V12.938H6.438ZM6.438 10.292H13.583V9.688H6.438ZM6.438 7.042H13.583V6.417H6.438ZM3.688 16.312V3.667H16.333V16.312ZM4.292 15.708H15.708V4.292H4.292ZM4.292 15.708V4.292V15.708Z"/></svg>
